X: 35627
T: Sail-Maker's Wife, The
R: jig
M: 6/8
K: Ddorian
C|:~D2d dcA|G2A F2E|~D2d dcA|GAc d2C|
~D2d dcA|G2A F2D|FGA cAG|1 FDC D2C:|2 FDC D2c||
|:fed edc|ABc ~d3|f2d edc|AGE ~D2c|
fed edc|ABc AGE|~C2E ~G3|1 FDC D2c:|2 FDC D2C||

